X: 6432
T: Castlebar Races, The
R: jig
M: 6/8
K: Gmajor
d|:gdB BAB|GAG GBd|gdB BAB|GBd e2d|
gdB BAB|GAG GBd|gfe fdB|ABd e2d:|
|:gfg bag|fef agf|gfg bag|fed e2f|
gfg bag|fef afd|gfe fdB|ABd e2d:|

